X:75
T:Hit or miss
B:Preston's Twenty four COUNTRY DANCES for the Year 1801
L:1/8
M:6/8
N:(P)
O:England
Z:Richard Robinson 
%%Dancenotes:Change sides back again, down the middle, swing corners
%%Page:8
%%TUNEURL: http://www.leeds.ac.uk/music/Info/RRTuneBk/gettune/00001178.html
%%ID:00001178
K:F
c | \
f2f fef | fef fef | g2g g2g | gaf edc | \
f2f fef | fef gab | agf edc | f3- f2 ::
c | \
c2A f2f | d3 Bcd | c2A f2a | gec c2c | \
c2A f2f | d3 b3  | agf ede | f3- f2 ::
